X:1
T: The Dogs among the Bushes
C:
R:Reel
Q: 232
K:G
M:4/4
L:1/8
|:BG ((3GFG) DG ((3GFG)|BG GB ce dc|BG ((3GFG) DG ((3GFG)|AF FA =fd cA|
BG ((3GFG) DG ((3GFG)|BG GB ce dc|BA Bc de =fd|cA FA =fd cA:|
|:dg gf ga gf|dg ga bg ag|de =fe fg fe|d=f eg fd cA|
dg gf ga gf|dg ga bg ag|bg ag bg ag|1d=f eg fd cA:|2d=f eg dB G2||
